X: 58
T: 54. THE FLOWERS OF EDINBURGH
B: Sam Bayard, "Hill Country Tunes" 1944 #54
S: Played by John Kubina, (near) Davistown, PA, Sept 3 1943.
S: Learned from traditional players in Pittsburgh.
R: reel
M: 4/4
L: 1/8
Z: 2010 John Chambers <jc:trillian.mit.edu>
K: G
D2zD G2G2 | BGBd cBAG | FGFE D2DF | ABAF D2z2 |
D3D G2G2 | BGBd efge | dcBA GFGA | B2G2 G2 || ef |
g2g2 gbag | f2f2 fagf | e^def gfe=d | B2e2 e2((3efe) |
dBGB d2^cd | edef g2fe | dcBA GFGA | B2G2 G2z2 |]

%%sep 2 1 500
%%sep 1 1 500

